X:2
%
M:C
L:1/8
K:Gminor
%
V:F clef=treble        space=+10pt bracket=2
V:B clef=bass          
Q:"(Allegro)"
[V:F] d' | ba/b/ gb a^f dd' |\
	ba g/a/b/c'/ d'd z d' |\
	e'/d'/c'/d'/ e'/d'/c'/b/ a/c'/b/c'/ a/c'/b/c'/ |
[V:B] z | g2 G2 "#"d2 z ^f |\
	g"6"=f "6"e2 "#"dd' "6"bg |\
	cz cz "7"fz fz |
[V:F] d'/c'/b/c'/ d'/c'/b/a/ g/b/a/b/ g/b/a/b/ |\
	c'/b/a/b/ c'/b/a/g/ ^fd g=f |\
	e/c/d/e/ f/c/f/e/ d/B/c/d/ e/B/e/d/ |
[V:B] Bz Bz "7"ez ez |\
	Az Az "#"dd' "6"=b"7"g |\
	zc' "6"af z_b "6"ge |
[V:F] c/A/B/c/ d/A/d/c/ B2 z/ G/B/d/ |\
	e/d/c/B/ c/B/A/G/ ab ca |\
	z/ B/d/f/ d/B/d/f/ g/b/a/b/ g/a/f/g/ |
[V:B] za "6"^fd gd BG |\
	c'g ec "7"f"5"g "6\n5"ef |\
	B2 z2 "6"B"5"B "6"B"5"B  |
[V:F] =e/c/e/g/ e/c/e/g/ a/c'/b/c'/ a/b/g/a/ |\
	^f/d/f/a/ f/d/f/a/ b/d'/c'/d'/ b/c'/a/b/ |\
	g/e/g/b/ g/e/g/b/ a/c'/b/c'/ c'/b/a/g/ |
[V:B] "\="c2 z2 "6"c"5"c "6"c"5"c |\
	"#"d2 z2 "6\n3\="d"5"d"6"d"5"d |\
	_e2 z2 "6"e"5"e "6""5"e"6""5"c |
[V:F] ^fg2 =f2 _e2 d |\
	^c/A/d/=e/ e>d d3 :: a |\
	a/g/^f/"\="e/ dc B2 z g |\
	g/f/=e/d/ cB A2 z f |
[V:B] "#"d"6"=b "b"c'"6"a _b"6b"g "5"ab |\
	"#"a/g/"6"f/"6"g/ "#"aA "\="d3 :: z |\
	"#"d2 z "5"^f gd BG |\
	"\="c2 z "5"=e fc AF |
[V:F] f/=e/d/c/ dg =ec f2- |\
	f=e/d/ cB A2 G2 |\
	z F/G/ A/B/c/d/ _e/c/A/F/ _e/c/A/F/ |\
	d/c/B/c/ d/e/f/g/
[V:B] B2 z"6"B "\="cc' "6"af |\
	b"6\="g "6"ab "6\n4"c'2 "5\n3\="c2 |\
	f2 z2 "6\n5b"AA AA |\
	B2 z2 
[V:F] _a/f/d/B/ _a/f/d/B/ |\
	g/f/e/f/ g/a/b/c'/ b/g/=e/c/ b/g/e/c/ |\
	=a/g/f/g/ a/b/c'/d'/ c'/a/^f/d/ c'/a/^f/d/ |\
	b/a/g/^f/ ga 
[V:B] "6\n5b"dd dd |\
	e2 z2 "6\n5"=ee ee |\
	"\="f2 z2 "6\n5"^ff ff |\
	gG/"6#"A/ "6"B"6"c
[V:F] ^fd z d |\
	eg/^f/ gc'/=b/ c'3 c- |\
	ce dc Bg/^f/ gG |\
	A/g/^f/g/ A^f g3 :|
[V:B] "#"dd' "6"bg |\
	c'2 z c/"6\="d/ "6"ee'/d'/ c'/b/a/g/ |\
	"7\n5"^f2 z f gG/"6#"A/ "6"B"7\n5"c |\
	"4"d2 "3#"D2 G3 :|

